!!!COM: Anonymous
!!!COS: Gaspar van Weerbeke
!!!OPR: Missa [sine nomine]
!!!OTL: Kyrie
!!!OMV: 1
!!!AGN: Mass
!!!SCT: Gas0207a
!!!SCA: Gas0207a
!!!voices: 4
**kern	**text	**kern	**text	**kern	**text	**kern	**text
*part4	*part4	*part3	*part3	*part2	*part2	*part1	*part1
*staff4	*staff4	*staff3	*staff3	*staff2	*staff2	*staff1	*staff1
*I"Bassus	*	*I"Tenor	*	*I"Altus	*	*I"Superius	*
*I'B	*	*I'T	*	*I'A	*	*I'S	*
*clefF4	*	*clefGv2	*	*clefGv2	*	*clefG2	*
*k[b-]	*	*k[b-]	*	*k[b-]	*	*k[b-]	*
*M2/2	*	*M2/2	*	*M2/2	*	*M2/2	*
*met(C|)	*	*met(C|)	*	*met(C|)	*	*met(C|)	*
=1	=1	=1	=1	=1	=1	=1	=1
[1G	Ky-	1G	Ky-	[1d	Ky-	1g	Ky-
=2	=2	=2	=2	=2	=2	=2	=2
2G]	.	2B-y	-ri-	2d]	.	2.g	-ri-
2C	-ri-	2c	.	2e	-ri-	.	.
.	.	.	.	.	.	4e	.
=3	=3	=3	=3	=3	=3	=3	=3
4D	-e	2.A	-e	2d	-e	4f	-e
2F	.	.	.	.	.	2a	.
*	*	*	*	*lig	*	*	*
*	*	*	*	*	*edit	*	*
.	.	.	.	2D	e-	.	.
8EL	.	4B-y	.	.	.	8gL	.
8DJ	.	.	.	.	.	8fJ	.
=4	=4	=4	=4	=4	=4	=4	=4
*lig	*	*	*	*	*	*	*
2C	.	2c	.	2E	.	2e	.
*	*	*	*	*Xlig	*	*	*
*	*	*	*edit	*	*	*	*
2BB-y	.	2d	e-	4.F	-ley-	2d	.
.	.	.	.	8G	.	.	.
*Xlig	*	*	*	*	*	*	*
=5	=5	=5	=5	=5	=5	=5	=5
*lig	*	*	*	*	*	*lig	*
*	*	*	*	*	*	*	*edit
2AA	.	4c	-ley-	2A	.	2f	e-
.	.	4A	.	.	.	.	.
2GG	.	2B-y	.	4.d	.	2g	.
.	.	.	.	8e	.	.	.
*Xlig	*	*	*	*	*	*Xlig	*
=6	=6	=6	=6	=6	=6	=6	=6
*	*edit	*	*	*	*	*	*
4.D	e-	2A	-son,	4.f	.	2.a	-ley-
8E	.	.	.	8e	.	.	.
4F	.	4r	.	8dL	.	.	.
.	.	.	.	8cJ	.	.	.
4G	.	4G	Ky-	4B-y	.	4b-y	.
!!LO:LB:g=original
=7	=7	=7	=7	=7	=7	=7	=7
4F	.	4A	.	4c	.	4a	.
4G	.	4G	.	4B-y	.	2b-y	.
2GG	-ley-	2B-y	-ri-	[2d	.	.	.
.	.	.	.	.	.	8aL	.
.	.	.	.	.	.	8gJ	.
=8	=8	=8	=8	=8	=8	=8	=8
1D	-son,	2A	-e	4d]	.	4.f	.
.	.	.	.	8cL	.	.	.
.	.	.	.	8B-yJ	.	8g	.
.	.	4r	.	2A	.	2a	-son,
.	.	4F	Ky-	.	.	.	.
=9	=9	=9	=9	=9	=9	=9	=9
1r	.	4G	-ri-	2G	.	4r	.
*	*	*lig	*	*	*	*	*
.	.	2B-y	-e	.	.	4b-y	Ky-
.	.	.	.	4E	.	4g	.
.	.	[4A	.	4F	.	[4a	-ri-
=10	=10	=10	=10	=10	=10	=10	=10
2r	.	4A]	.	2D	-son,	4a]	.
*	*	*Xlig	*	*	*	*	*
.	.	2d	e-	.	.	4f	.
2AA	Ky-	.	.	2r	.	2e	.
.	.	4c#i	.	.	.	.	.
=11	=11	=11	=11	=11	=11	=11	=11
4.BB-y	-ri-	4.d	-ley-	4.f	Ky-	2d	-e
8C	.	8c	.	8e	.	.	.
4D	.	4A	.	8dL	.	2r	.
.	.	.	.	8cJ	.	.	.
4GG	-e	4B-y	.	[4B-y	.	.	.
=12	=12	=12	=12	=12	=12	=12	=12
4r	.	2G	-son,	4B-]	.	4r	.
4E-X	e-	.	.	8AL	.	4g	e-
.	.	.	.	8GJ	.	.	.
4C	.	2r	.	4A	.	4e-i	.
4D	.	.	.	[4F	.	[4f	-ley-
=13	=13	=13	=13	=13	=13	=13	=13
2BB-y	-ley-	4.F	Ky-	4F]	.	4f]	.
.	.	.	.	2B-y	-ri-	4d	.
.	.	8G	.	.	.	.	.
2F	.	4A	.	.	.	2c	-son,
.	.	4F	.	4A	.	.	.
!!LO:LB:g=original
=14	=14	=14	=14	=14	=14	=14	=14
2.BB-y	-son,	2F	-ri-	4.B-y	-e	2r	.
.	.	.	.	8c	.	.	.
.	.	4.B-y	.	4d	.	4r	.
4GG	Ky-	.	.	4B-y	.	4dd	Ky-
.	.	8G	.	.	.	.	.
=15	=15	=15	=15	=15	=15	=15	=15
4G	.	2G	-e	4d	e-	4b-y	.
4C	.	.	.	4e-i	.	4.cc	-ri-
2F	-ri-	4r	.	4c	.	.	.
.	.	.	.	.	.	8b-yL	.
.	.	4A	e-	[4f	-ley-	8a	.
.	.	.	.	.	.	8gJ	.
=16	=16	=16	=16	=16	=16	=16	=16
4D	-e	4B-y	.	8fL]	.	4f	-e
.	.	.	.	8e-iJ	.	.	.
2G	e-	4d	.	4d	.	2b-y	e-
.	.	2c	-ley-	4e-i	.	.	.
4F	.	.	.	4f	.	4a	.
=17	=17	=17	=17	=17	=17	=17	=17
2.G	-ley-	2B-y	-son,	2d	-son,	2.b-y	-ley-
.	.	4G	Ky-	2r	.	.	.
4F	.	4A	.	.	.	4a	.
=18	=18	=18	=18	=18	=18	=18	=18
*	*	*	*	*	*	*lig	*
2E-i	.	4B-y	-ri-	4r	.	2g	.
.	.	4c	.	4G	Ky-	.	.
2D	-son,	2d	-e	2A	-ri-	2f	.
*	*	*	*	*	*	*Xlig	*
=19	=19	=19	=19	=19	=19	=19	=19
4.E-i	e-	4B-y	e-	4.G	-e	2g	.
.	.	2c	.	.	.	.	.
8D	.	.	.	8F	.	.	.
4C	.	.	.	8GL	.	4e-i	.
.	.	.	.	8AJ	.	.	.
[4BB-y	-ley-	[4d	-ley-	4B-y	.	4d	.
=20	=20	=20	=20	=20	=20	=20	=20
8BB-L]	.	8dL]	.	4F	.	2f	-son,
8CJ	.	8c	.	.	.	.	.
*	*	*	*	*	*Xedit	*	*
4D	.	8B-y	.	4f	e-	.	.
.	.	8AJ	.	.	.	.	.
4E-i	.	4G	.	4e-i	.	4g	Ky-
4D	.	4F	.	4f	.	4a	.
!!LO:LB:g=original
=21	=21	=21	=21	=21	=21	=21	=21
4G	.	4B-y	.	4d	.	4g	.
4.F	.	4A	.	4f	.	4.a	-ri-
.	.	2c	-son,	4c	.	.	.
8E-j	.	.	.	.	.	8g	.
*	*	*	*	*col	*	*	*
4F	.	.	.	[4f	.	4a	.
=22	=22	=22	=22	=22	=22	=22	=22
*	*	*	*Xedit	*	*	*	*
4D	.	4.d	e-	8fL]	.	4f	-e
.	.	.	.	8e-iJ	.	.	.
*	*	*	*	*Xcol	*	*	*
*	*	*	*	*	*	*	*Xedit
4.G	.	.	.	2d	.	4.b-y	e-
.	.	8c	.	.	.	.	.
.	.	4d	.	.	.	.	.
8F	.	.	.	.	.	8a	.
4G	.	4B-y	.	[4g	.	4b-y	.
=23	=23	=23	=23	=23	=23	=23	=23
2.C	-son,	4.e-X	.	4g]	.	4g	.
*	*	*	*	*lig	*	*	*
.	.	.	.	2G	.	4.cc	-ley-
.	.	8d	.	.	.	.	.
.	.	4e-i	.	.	.	.	.
.	.	.	.	.	.	8b-y	.
*	*Xedit	*	*	*	*	*lig	*
[4F	e-	[4c	-ley-	[4A	.	[4a	.
=24	=24	=24	=24	=24	=24	=24	=24
4F]	.	4c]	.	4A]	.	4a]	.
*	*	*	*	*Xlig	*	*	*
4G	.	4B-y	.	2.d	-ley-	2g	.
*	*	*	*	*	*	*Xlig	*
2D	-ley-	2A	.	.	.	.	.
.	.	.	.	.	.	4f#i	.
=25	=25	=25	=25	=25	=25	=25	=25
0GG	-son.	0G	-son.	0d	-son.	0g	-son.
!!LO:PB:g=original
=26||	=26||	=26||	=26||	=26||	=26||	=26||	=26||
*M2/2	*	*M2/2	*	*M2/2	*	*M2/2	*
*met(C|)	*	*met(C|)	*	*met(C|)	*	*met(C|)	*
1r	.	1r	.	2d	Chri-	1r	.
.	.	.	.	4e	.	.	.
.	.	.	.	[4f	.	.	.
=27	=27	=27	=27	=27	=27	=27	=27
2D	Chri-	1r	.	4f]	.	1r	.
.	.	.	.	8eL	.	.	.
.	.	.	.	8dJ	.	.	.
4E	.	.	.	8cL	.	.	.
.	.	.	.	8B-y	.	.	.
[4F	.	.	.	8A	.	.	.
.	.	.	.	8GJ	.	.	.
=28	=28	=28	=28	=28	=28	=28	=28
4F]	.	2r	.	4A	.	1r	.
8EL	.	.	.	2d	.	.	.
8DJ	.	.	.	.	.	.	.
2E	.	2G	Chri-	.	.	.	.
.	.	.	.	4c#i	.	.	.
=29	=29	=29	=29	=29	=29	=29	=29
2D	-ste	4A	.	2.d	-ste	1r	.
.	.	2B-y	.	.	.	.	.
2GG	.	.	.	.	.	.	.
.	.	8AL	.	8cL	.	.	.
.	.	8GJ	.	8B-yJ	.	.	.
=30	=30	=30	=30	=30	=30	=30	=30
4r	.	4A	.	2A	.	2f	Chri-
*	*edit	*	*	*	*	*	*
4D	e-	8GL	.	.	.	.	.
.	.	8FJ	.	.	.	.	.
*	*	*	*	*	*edit	*	*
4E	.	4E	.	4G	e-	4g	.
[4F	.	[4D	-ste	4F	.	[4a	.
=31	=31	=31	=31	=31	=31	=31	=31
4F]	.	4D]	.	4D	.	4a]	.
*	*	*	*edit	*	*	*	*
8EL	.	2d	e-	2A	-ley-	8gL	.
8DJ	.	.	.	.	.	8fJ	.
2E	.	.	.	.	.	2g	.
.	.	4c#i	.	4G	.	.	.
!!LO:LB:g=original
=32	=32	=32	=32	=32	=32	=32	=32
4.D	-ley-	4.d	-ley-	2A	-son,	2f	-ste
8E	.	8c	.	.	.	.	.
*	*	*	*	*	*	*	*edit
4F	.	4A	.	2r	.	4a	e-
4G	.	[4G	.	.	.	[4b-y	.
=33	=33	=33	=33	=33	=33	=33	=33
2GG	-son,	4G]	.	4r	.	4b-]	.
.	.	8FL	.	2g	Chri-	8aL	.
.	.	8EJ	.	.	.	8gJ	.
2r	.	2D	-son,	.	.	2a	-ley-
.	.	.	.	4f#i	.	.	.
=34	=34	=34	=34	=34	=34	=34	=34
4.G	Chri-	4r	.	2g	-ste	2g	-son,
.	.	2G	Chri-	.	.	.	.
8F	.	.	.	.	.	.	.
8EL	.	.	.	8gL	e-	4b-y	Chri-
8DJ	.	.	.	8f	.	.	.
4C	.	[4A	.	8e	.	[4cc	.
.	.	.	.	8dJ	.	.	.
=35	=35	=35	=35	=35	=35	=35	=35
2F	-ste	4A]	.	4c	.	4cc]	.
.	.	8GL	.	2f	.	8b-yL	.
.	.	8FJ	.	.	.	8aJ	.
2r	.	2G	.	.	.	2b-y	.
.	.	.	.	4e	.	.	.
=36	=36	=36	=36	=36	=36	=36	=36
2D	e-	4.F	-ste	2f	-ley-	4.a	-ste
.	.	8G	.	.	.	8b-y	.
4AA	-ley-	4A	.	4e	.	4cc	.
4BB-y	.	4D	.	4d	.	[4dd	.
=37	=37	=37	=37	=37	=37	=37	=37
2AA	-son,	1A	e-	1e	-son,	4dd]	.
.	.	.	.	.	.	8ccL	.
.	.	.	.	.	.	8b-yJ	.
2r	.	.	.	.	.	8ccL	.
.	.	.	.	.	.	8b-y	.
.	.	.	.	.	.	8a	.
.	.	.	.	.	.	8gJ	.
!!LO:LB:g=original
=38	=38	=38	=38	=38	=38	=38	=38
4.D	e-	4.A	-ley-	4.d	e-	4.f	e-
8C	.	8B-y	.	8e	.	8g	.
4AA	.	4c	.	4f	-ley-	4a	.
4GG	.	[4d	.	4g	.	[4b-y	.
=39	=39	=39	=39	=39	=39	=39	=39
4.BB-y	-ley-	4d]	.	1d	-son,	4b-]	.
.	.	4B-y	.	.	.	2g	-ley-
8C	.	.	.	.	.	.	.
2D	-son,	2A	-son,	.	.	.	.
.	.	.	.	.	.	4f#i	.
=40	=40	=40	=40	=40	=40	=40	=40
4.GG	e-	8GL	e-	1r	.	2g	-son,
.	.	8A	.	.	.	.	.
.	.	8B-y	.	.	.	.	.
8AA	.	8cJ	.	.	.	.	.
4BB-y	.	4d	.	.	.	2r	.
[4C	.	[4e-X	.	.	.	.	.
=41	=41	=41	=41	=41	=41	=41	=41
4C]	.	4e-]	.	1r	.	1r	.
4D	.	2d	.	.	.	.	.
2E-X	-ley-	.	.	.	.	.	.
.	.	4c	.	.	.	.	.
=42	=42	=42	=42	=42	=42	=42	=42
*	*	*	*	*	*	*	*Xedit
2D	-son,	4.d	-ley-	1r	.	8dL	e-
.	.	.	.	.	.	8e	.
.	.	.	.	.	.	8f	.
.	.	8c	.	.	.	8gJ	.
2r	.	4A	.	.	.	4a	.
*	*	*	*	*	*	*lig	*
.	.	4G	.	.	.	[4b-y	-ley-
=43	=43	=43	=43	=43	=43	=43	=43
1r	.	4c	.	1r	.	4b-]	.
.	.	4d	.	.	.	2a	.
*	*	*	*	*	*	*Xlig	*
.	.	2B-y	.	.	.	.	.
.	.	.	.	.	.	4g	.
!!LO:LB:g=original
=44	=44	=44	=44	=44	=44	=44	=44
*	*	*	*	*	*	*	*edit
4.AA	Chri-	2A	-son,	4.c	Chri-	2a	-son,
8BB-y	.	.	.	8d	.	.	.
4C	.	2r	.	4e	.	2r	.
[4D	-ste	.	.	[4f	-ste	.	.
=45	=45	=45	=45	=45	=45	=45	=45
8DL]	.	1r	.	8fL]	.	1r	.
8E	.	.	.	8e	.	.	.
8F	.	.	.	8d	.	.	.
8EJ	.	.	.	8cJ	.	.	.
8DL	.	.	.	8B-yL	.	.	.
8CJ	.	.	.	8AJ	.	.	.
*	*	*	*	*	*Xedit	*	*
4BB-y	.	.	.	4d	e-	.	.
=46	=46	=46	=46	=46	=46	=46	=46
*	*Xedit	*	*	*	*	*	*
4AA	e-	1r	.	4c	.	1r	.
4BB-y	.	.	.	2B-y	-ley-	.	.
2C	-ley-	.	.	.	.	.	.
.	.	.	.	4A	.	.	.
=47	=47	=47	=47	=47	=47	=47	=47
*	*edit	*	*Xedit	*	*edit	*	*
2BB-y	-son,	4.D	e-	4B-y	-son,	2r	.
.	.	.	.	4F	.	.	.
.	.	8E	.	.	.	.	.
[2BB-y	e-	4F	.	4.B-y	e-	4.d	e-
.	.	4G	.	.	.	.	.
.	.	.	.	8c	.	8e	.
=48	=48	=48	=48	=48	=48	=48	=48
4BB-]	.	4F	.	4.d	.	4f	.
4GG	.	4B-y	.	.	.	4g	.
.	.	.	.	8e	.	.	.
4D	.	4A	.	4f	.	4f	.
4BB-y	.	[4G	.	[4g	.	[4b-y	-ley-
=49	=49	=49	=49	=49	=49	=49	=49
4GG	.	4G]	.	4g]	.	4b-]	.
4D	.	4F	.	2d	-ley-	4a	.
2E-i	-ley-	2G	-ley-	.	.	4.g	.
.	.	.	.	4c	.	.	.
.	.	.	.	.	.	8e-j	.
=50	=50	=50	=50	=50	=50	=50	=50
*	*Xedit	*	*	*	*Xedit	*	*Xedit
0D	-son.	0A	-son.	0d	-son.	0f	-son.
!!LO:PB:g=original
=51||	=51||	=51||	=51||	=51||	=51||	=51||	=51||
*M2/2	*	*M2/2	*	*M2/2	*	*M2/2	*
*met(C|)	*	*met(C|)	*	*met(C|)	*	*met(C|)	*
1r	.	1r	.	2d	Ky-	1r	.
.	.	.	.	2e	.	.	.
=52	=52	=52	=52	=52	=52	=52	=52
2D	Ky-	1r	.	2f	-ri-	1r	.
2E	.	.	.	2g	.	.	.
=53	=53	=53	=53	=53	=53	=53	=53
2F	-ri-	2r	.	4f	-e	1r	.
*	*	*	*	*	*edit	*	*
.	.	.	.	2d	e-	.	.
2G	.	2G	Ky-	.	.	.	.
.	.	.	.	8cL	.	.	.
.	.	.	.	8B-yJ	.	.	.
=54	=54	=54	=54	=54	=54	=54	=54
2D	-e	2A	-ri-	2A	.	2f	Ky-
2r	.	2B-y	.	4G	.	2g	.
.	.	.	.	4d	.	.	.
=55	=55	=55	=55	=55	=55	=55	=55
*	*	*	*	*	*	*lig	*
2r	.	4.c	-e	4.e	.	2a	-ri-
.	.	8B-y	.	8f	.	.	.
*	*edit	*	*	*	*	*	*
2GG	e-	2G	.	2g	.	2b-y	.
*	*	*	*	*	*	*Xlig	*
=56	=56	=56	=56	=56	=56	=56	=56
*	*	*	*edit	*	*	*	*
2AA	.	2c	e-	2e	.	2a	-e
*	*	*	*	*	*	*	*edit
4BB-y	.	4B-y	.	4d	.	4dd	e-
[4C	-ley-	4A	.	[4e	-ley-	4cc	.
=57	=57	=57	=57	=57	=57	=57	=57
*	*	*lig	*	*	*	*	*
4C]	.	2c	.	4e]	.	2a	.
8BB-yL	.	.	.	4f	.	.	.
8AAJ	.	.	.	.	.	.	.
2GG	.	2d	.	2g	-son,	4.b-y	.
.	.	.	.	.	.	8a	.
*	*	*Xlig	*	*	*	*	*
!!LO:LB:g=original
=58	=58	=58	=58	=58	=58	=58	=58
2C	.	2e-X	-ley-	1r	.	2g	.
*	*	*	*	*	*	*lig	*
2D	-son,	4.d	.	.	.	2f	.
.	.	8c	.	.	.	.	.
=59	=59	=59	=59	=59	=59	=59	=59
1r	.	8B-yL	.	4.d	e-	2b-y	.
.	.	8AJ	.	.	.	.	.
.	.	4G	.	.	.	.	.
.	.	.	.	8e	.	.	.
*	*	*	*	*	*	*Xlig	*
.	.	4F	.	4f	.	4a	.
.	.	[4G	.	[4e	-ley-	[4g	-ley-
=60	=60	=60	=60	=60	=60	=60	=60
1r	.	4G]	.	4e]	.	8gL]	.
.	.	.	.	.	.	8f	.
.	.	4B-y	.	2d	.	8e	.
.	.	.	.	.	.	8dJ	.
.	.	2A	-son,	.	.	2e	.
.	.	.	.	4c#i	.	.	.
=61	=61	=61	=61	=61	=61	=61	=61
1r	.	2.B-y	Ky-	1d	-son,	2d	-son,
.	.	.	.	.	.	2r	.
.	.	8AL	.	.	.	.	.
.	.	8GJ	.	.	.	.	.
=62	=62	=62	=62	=62	=62	=62	=62
2BB-y	Ky-	4F	.	1r	.	1r	.
.	.	2G	-ri-	.	.	.	.
*lig	*	*	*	*	*	*	*
2C	-ri-	.	.	.	.	.	.
.	.	[4A	-e	.	.	.	.
=63	=63	=63	=63	=63	=63	=63	=63
2D	.	4A]	.	1r	.	1r	.
.	.	4F	.	.	.	.	.
*Xlig	*	*	*	*	*	*	*
2E	-e	4G	.	.	.	.	.
.	.	8FL	.	.	.	.	.
.	.	8EJ	.	.	.	.	.
!!LO:LB:g=original
=64	=64	=64	=64	=64	=64	=64	=64
2.F	e-	8DL	e-	1r	.	1r	.
.	.	8E	.	.	.	.	.
.	.	8F	.	.	.	.	.
.	.	8GJ	.	.	.	.	.
.	.	4.A	.	.	.	.	.
8EL	.	.	.	.	.	.	.
8DJ	.	8B-y	.	.	.	.	.
=65	=65	=65	=65	=65	=65	=65	=65
4C	.	4c	.	1r	.	1r	.
4BB-y	.	2d	.	.	.	.	.
[2F	.	.	.	.	.	.	.
.	.	8cL	.	.	.	.	.
.	.	8B-yJ	.	.	.	.	.
=66	=66	=66	=66	=66	=66	=66	=66
4F]	.	4c	.	1r	.	1r	.
4D	.	2B-y	-ley-	.	.	.	.
2C	-ley-	.	.	.	.	.	.
.	.	4A	.	.	.	.	.
=67	=67	=67	=67	=67	=67	=67	=67
2BB-y	-son,	2B-y	-son,	2.f	Ky-	4.d	Ky-
.	.	.	.	.	.	8e	.
2r	.	2r	.	.	.	8fL	.
.	.	.	.	.	.	8gJ	.
.	.	.	.	8eL	.	[4a	.
.	.	.	.	8dJ	.	.	.
=68	=68	=68	=68	=68	=68	=68	=68
1r	.	1r	.	2c	-ri-	8aL]	.
.	.	.	.	.	.	8b-yJ	.
.	.	.	.	.	.	4cc	.
.	.	.	.	4.B-y	-e	4.dd	.
.	.	.	.	8c	.	8cc	.
=69	=69	=69	=69	=69	=69	=69	=69
*	*	*	*	*	*Xedit	*	*
1r	.	1r	.	2d	e-	8b-yL	.
.	.	.	.	.	.	8gJ	.
.	.	.	.	.	.	4b-y	.
.	.	.	.	[2c	-ley-	4a	.
*	*	*	*	*	*	*lig	*
.	.	.	.	.	.	[4g	-ri-
!!LO:LB:g=original
=70	=70	=70	=70	=70	=70	=70	=70
2r	.	1r	.	4c]	.	4g]	.
.	.	.	.	4A	.	2f	.
*	*	*	*	*	*edit	*	*
2C	Ky-	.	.	2G	-son,	.	.
*	*	*	*	*	*	*Xlig	*
.	.	.	.	.	.	4e	.
=71	=71	=71	=71	=71	=71	=71	=71
2D	-ri-	2F	Ky-	4r	.	2f	-e
.	.	.	.	4A	e-	.	.
*	*	*	*	*	*	*	*Xedit
4BB-y	.	[2G	-ri-	2B-y	.	4d	e-
4GG	.	.	.	.	.	[4e	.
=72	=72	=72	=72	=72	=72	=72	=72
2.C	-e	4G]	.	4G	.	8eL]	.
.	.	.	.	.	.	8fJ	.
.	.	4E	.	2.c	.	4g	.
.	.	[2A	-e	.	.	4e	.
4AA	.	.	.	.	.	[4f	.
=73	=73	=73	=73	=73	=73	=73	=73
*	*Xedit	*	*	*	*	*	*
2.D	e-	4A]	.	4A	.	8fL]	.
.	.	.	.	.	.	8gJ	.
.	.	4F	.	2.d	-ley-	4a	.
*	*	*	*Xedit	*	*	*	*
.	.	[2B-y	e-	.	.	4f	.
4BB-y	.	.	.	.	.	[4g	.
=74	=74	=74	=74	=74	=74	=74	=74
2.E-X	.	4B-]	.	2B-y	-son,	4g]	.
.	.	4G	.	.	.	4b-y	.
.	.	2c	.	4r	.	4g	.
4C	.	.	.	4e-i	e-	[4a	.
=75	=75	=75	=75	=75	=75	=75	=75
4D	.	4F	.	4d	.	4a]	.
4E-i	.	4G	.	4c	.	2g	-ley-
2D	-ley-	2A	-ley-	2d	-ley-	.	.
.	.	.	.	.	.	4f#i	.
*	*	*	*	*	*Xedit	*	*
=76	=76	=76	=76	=76	=76	=76	=76
0GGl	-son.	0Gl	-son.	0dl	-son.	0gl	-son.
==	==	==	==	==	==	==	==
*-	*-	*-	*-	*-	*-	*-	*-
!!!system-decoration: [*]
!!!RDF**kern: j = editorial accidental, optional, paren up
!!!RDF**kern: i = editorial accidental
!!!RDF**kern: l = terminal long
!!!PTL: Gaspar van Weerbeke: Collected Works. II. Masses, Part 2
!!!PPR: American Institute of Musicology
!!!PC#: Corpus Mensurabilis Musicae 106/II.2
!!!PDT: 2018
!!!PED: Kolb, Paul
!!!YEC: Copyright 2016, Kolb, Paul
!!!YEM: CC-BY-NC 4.0 (https://creativecommons.org/licenses/by-nc/4.0/legalcode)
!!!EED: Zybina, Karina
!!!EEV: 2021/11/25
!!!title: @{OPR} &mdash; @{OTL}
